icons/flow-chart.svg

<svg fill="none" stroke="currentColor" stroke-linecap="round" stroke-linejoin="round" stroke-width="1.5" viewBox="0 0 24 24"><g stroke-linecap="square" stroke-miterlimit="10"><path d="M2 2h8v4H2zm0 16h8v4H2zm4-9v6m7-11h4v2m-4 14h4v-2"/><path d="m12 12 5-3 5 3-5 3z" data-color="color-2"/></g></svg>

<svg xmlns="http://www.w3.org/2000/svg" height="24" width="24" viewBox="0 0 24 24"><title>flow chart</title><g stroke-linecap="butt" fill="#ffffff" class="nc-icon-wrapper" stroke-linejoin="miter"><path fill="none" stroke="#ffffff" stroke-linecap="square" stroke-miterlimit="10" stroke-width="1.5" d="M2 2H10V6H2z"></path><path fill="none" stroke="#ffffff" stroke-linecap="square" stroke-miterlimit="10" stroke-width="1.5" d="M2 18H10V22H2z"></path><path fill="none" stroke="#ffffff" stroke-linecap="square" stroke-miterlimit="10" stroke-width="1.5" d="M6 9L6 15"></path><path fill="none" stroke="#ffffff" stroke-linecap="square" stroke-miterlimit="10" stroke-width="1.5" d="M13 4L17 4 17 6"></path><path fill="none" stroke="#ffffff" stroke-linecap="square" stroke-miterlimit="10" stroke-width="1.5" d="M13 20L17 20 17 18"></path><path fill="none" stroke="#ffffff" stroke-linecap="square" stroke-miterlimit="10" stroke-width="1.5" data-color="color-2" d="M12 12L17 9 22 12 17 15 12 12z"></path></g></svg>
